X:1
T:[ID 2-8b]
T:[ID 2-8b]
T:Bezeichnung standardisiert: Menuett Menuet
T:Urheber unbekannt Datum in der hier transkribierten schriftlichen Quelle: 1767
C:Urheber unbekannt
C:Datum in der hier transkribierten schriftlichen Quelle: 1767
L:1/8
M:3/4
K:D
V:1 treble 
V:1
 (3ABc | d2 d2 d2 | d4 eg | fafdec | d4 eg | fafdec | d2 defg | a2 bagf | e4 :: fg | a2 a2 a2 | %11
 b2 g4 | a2 f2 f2 | g2 e4 | d2 d2 d2 | d4 eg | fafdec | d4 :| %18

